X:1
T:G# minor          Solomon Howe, 1804
T:Anonymous, first published with this tune in 1804           88. 88. (L. M.)
T:Urania
T:Transcribed from The Farmer's Evening Entertainment, 1804.
%%score [ ( 1 2 ) 3 4 5 ]
L:1/8
Q:1/4=90
M:2/2
K:B
V:1 treble nm="Tr." snm="Tr."
V:2 treble 
V:3 treble nm="C." snm="C."
V:4 treble-8 nm="T." snm="T."
V:5 bass nm="B." snm="B."
V:1
"^1. To  my  almighty  Savior's  hand   My–self  I now re –sign;  What –e'er I  am, pos–sess, or  wish, Was his, before 'twas mine.     In" G4 | %1
 B2 c2 d2 d2 | G2 A2 B2 B2 | B2 c2 d2 e2 | d4 B4 | A>B cd d2 d2 | G2 e2 f>e d2 | d2 B2 d2 d2 | d8 | %9
 z4 d4 |: %10
"^1. pe – rils,  pains, in  doubts and fears,  He     always   gave  support;    And     to    his   friendly  care   and       aid,      In      fu  – ture" d2 BG A2 A2 | %11
 B2 c2 d2 dB | A2 B2 c2 d2 | d4 d4 | B2 A2 B2 d2 | d2 e2 d4 | B4 d2 c>B |1 %17
"^1.  I'll    re – sort. _________   In            I'll     re  – sort. _______" A2 Bc d4- | %18
 d4 d4 :|2 A2 Bc d4- | d4 |] %21
V:2
 x4 | x4 x2 A2 | d2 x2 x4 | x8 | x8 | x4 x2 A2 | x8 | x4 A2 F2 | G8 | x4 B4 |: x8 | x4 B2 x2 | x8 | %13
 B4 A4 | x8 | x2 A2 B4 | x4 B2 x2 |1 x4 B4- | B4 B4 :|2 x4 B4- | B4 |] %21
V:3
 D4 | G2 D2 G2 F2 | G2 D2 F>E D2 | DE F2 D2 G2 | F4 G4 | F2 D2 D2 D2 | G2 FE D2 D2 | D2 G2 F2 F2 | %8
 G8 | z4 G4 |: AG F2 F2 F2 | DE F2 D2 G2 | F2 G2 A2 G2 | F4 D4 | G2 F2 F2 F2 | FG AG F4 | %16
 F4 D2 G>F |1 G2 F2 G4- | G4 G4 :|2 G2 F2 G4- | G4 |] %21
V:4
"^2. Tis reason, I should praise his name, Who is my endless friend; And serve his cause, with love and zeal, Far as my powers extend.  Mor–" G4 | %1
 G2 A2 B2 A2 | G2 FE D2 D2 | G2 A2 B2 cB | A4 d4 | c2 B2 A2 A2 | B2 G2 F2 F2 | D2 G2 AG F2 | G8 | %9
 z4 B4 |: %10
"^2. –tals,  be – hold  the  power and love   The  great  Redeemer  shows!     To   bring   you  to  im – mor – tal       bliss    And   o –ver –" A2 G2 F2 F2 | %11
 G2 A2 B2 Bc | d2 d2 cB A2 | B4 A4 | d2 d2 d2 cB | A2 c2 B4 | d4 B2 G2 |1 %17
"^2. –come  your  foes. _____   Mor–     –come your foes. ______" D2 F2 G4- | G4 B4 :|2 D2 F2 G4- | %20
 G4 |] %21
V:5
 G,4 | G,2 F,2 G,2 D,2 | E,D, C,2 B,,2 B,,2 | C,B,, A,,2 G,,2 B,,C, | D,4 G,4 | %5
 A,>G, F,E, D,2 D,2 | B,,2 E,2 D,2 D,2 | B,,2 B,,C, D,2 D,2 | G,,8 | z4 G,4 |: D,2 E,2 D,2 D,2 | %11
 B,,2 A,,2 G,,2 G,,2 | D,2 G,2 C,2 F,2 | B,,4 D,4 | G,2 D,2 B,,2 B,,C, | D,2 G,,<A,, B,,4 | %16
 B,,4 B,,2 C,2 |1 D,2 [D,,D,]2 G,,4- | G,,4 G,4 :|2 %19
"^_______________________________________\nEdited by B. C. Johnston, 2017\nTreble\n edited throughout, to decrease repetition of D#;\n     original notes shown in gray." D,2 [D,,D,]2 G,,4- | %20
 G,,4 |] %21

